icons/svgs/trash-solid.svg

<svg width="24" height="24" viewBox="0 0 24 24" fill="none" xmlns="http://www.w3.org/2000/svg">
<path d="M8.52344 2.70312C8.71875 2.27344 9.14844 2 9.61719 2H14.3438C14.8125 2 15.2422 2.27344 15.4375 2.70312L15.75 3.25H19.5C20.1641 3.25 20.75 3.83594 20.75 4.5C20.75 5.20312 20.1641 5.75 19.5 5.75H4.5C3.79688 5.75 3.25 5.20312 3.25 4.5C3.25 3.83594 3.79688 3.25 4.5 3.25H8.25L8.52344 2.70312ZM19.5 7L18.6406 20.2422C18.6016 21.2578 17.7812 22 16.7656 22H7.19531C6.17969 22 5.35938 21.2578 5.32031 20.2422L4.5 7H19.5Z" fill="black"/>
</svg>

<svg xmlns="http://www.w3.org/2000/svg" width="24" height="24" fill="currentColor" class="icon-trash-solid" viewBox="0 0 24 24">
  <mask id="a" width="18" height="20" x="3" y="2" maskUnits="userSpaceOnUse" style="mask-type:alpha">
    <path d="M8.523 2.703C8.72 2.273 9.148 2 9.617 2h4.727c.469 0 .898.273 1.094.703l.312.547h3.75c.664 0 1.25.586 1.25 1.25 0 .703-.586 1.25-1.25 1.25h-15c-.703 0-1.25-.547-1.25-1.25 0-.664.547-1.25 1.25-1.25h3.75zM19.5 7l-.86 13.242C18.603 21.258 17.782 22 16.767 22h-9.57c-1.016 0-1.837-.742-1.876-1.758L4.5 7z"/>
  </mask>
  <g mask="url(#a)">
    <path d="M0 0h24v24H0z"/>
  </g>
</svg>
